Newaita/actions/16/format-line-spacing-triple.svg

<svg height="16" viewBox="0 0 16 16" width="16" xmlns="http://www.w3.org/2000/svg"><g fill="#424242"><path d="m1.652344 3.433594h2.648437c.183594 0 .328125.148437.328125.328125 0 .183593-.144531.332031-.328125.332031h-2.648437c-.179688 0-.328125-.148438-.328125-.332031 0-.179688.148437-.328125.328125-.328125zm0 0"/><path d="m1.621094 3.433594h.066406c.164062 0 .296875.148437.296875.328125v8.601562c0 .183594-.132813.332031-.296875.332031h-.066406c-.164063 0-.296875-.148437-.296875-.332031v-8.601562c0-.179688.132812-.328125.296875-.328125zm0 0"/><path d="m1.652344 12.03125h2.648437c.183594 0 .328125.148438.328125.332031 0 .183594-.144531.332031-.328125.332031h-2.648437c-.179688 0-.328125-.148437-.328125-.332031 0-.183593.148437-.332031.328125-.332031zm0 0"/><path d="m4.960938 1.449219c-.550782 0-.992188.441406-.992188.992187v2.644532c0 .550781.441406.992187.992188.992187h8.601562c.546875 0 .992188-.441406.992188-.992187v-2.644532c0-.550781-.445313-.992187-.992188-.992187zm.660156 1.320312h7.277344c.183593 0 .332031.148438.332031.332031v1.324219c0 .183594-.148438.328125-.332031.328125h-7.277344c-.179688 0-.328125-.144531-.328125-.328125v-1.324219c0-.183593.148437-.332031.328125-.332031zm0 0"/><path d="m4.960938 10.046875c-.550782 0-.992188.445313-.992188.992187v2.648438c0 .546875.441406.992188.992188.992188h8.601562c.546875 0 .992188-.445313.992188-.992188v-2.648438c0-.546874-.445313-.992187-.992188-.992187zm.660156 1.324219h7.277344c.183593 0 .332031.148437.332031.332031v1.320313c0 .183593-.148438.332031-.332031.332031h-7.277344c-.179688 0-.328125-.148438-.328125-.332031v-1.320313c0-.183594.148437-.332031.328125-.332031zm0 0"/><path d="m1.652344 7.402344h.664062c.179688 0 .328125.148437.328125.332031v.660156c0 .183594-.148437.332031-.328125.332031h-.664062c-.179688 0-.328125-.148437-.328125-.332031v-.660156c0-.183594.148437-.332031.328125-.332031zm0 0"/></g></svg>

<svg xmlns="http://www.w3.org/2000/svg" xmlns:xlink="http://www.w3.org/1999/xlink" width="16px" height="16px" viewBox="0 0 16 16" version="1.1">
<g id="surface1">
     <defs>
  <style id="current-color-scheme" type="text/css">
   .ColorScheme-Text { color:#424242; } .ColorScheme-Highlight { color:#eeeeee; }
  </style>
 </defs>
<path style="fill:currentColor" class="ColorScheme-Text" d="M 1.652344 3.433594 L 4.300781 3.433594 C 4.484375 3.433594 4.628906 3.582031 4.628906 3.761719 C 4.628906 3.945312 4.484375 4.09375 4.300781 4.09375 L 1.652344 4.09375 C 1.472656 4.09375 1.324219 3.945312 1.324219 3.761719 C 1.324219 3.582031 1.472656 3.433594 1.652344 3.433594 Z M 1.652344 3.433594 "/>
     <defs>
  <style id="current-color-scheme" type="text/css">
   .ColorScheme-Text { color:#424242; } .ColorScheme-Highlight { color:#eeeeee; }
  </style>
 </defs>
<path style="fill:currentColor" class="ColorScheme-Text" d="M 1.621094 3.433594 L 1.6875 3.433594 C 1.851562 3.433594 1.984375 3.582031 1.984375 3.761719 L 1.984375 12.363281 C 1.984375 12.546875 1.851562 12.695312 1.6875 12.695312 L 1.621094 12.695312 C 1.457031 12.695312 1.324219 12.546875 1.324219 12.363281 L 1.324219 3.761719 C 1.324219 3.582031 1.457031 3.433594 1.621094 3.433594 Z M 1.621094 3.433594 "/>
     <defs>
  <style id="current-color-scheme" type="text/css">
   .ColorScheme-Text { color:#424242; } .ColorScheme-Highlight { color:#eeeeee; }
  </style>
 </defs>
<path style="fill:currentColor" class="ColorScheme-Text" d="M 1.652344 12.03125 L 4.300781 12.03125 C 4.484375 12.03125 4.628906 12.179688 4.628906 12.363281 C 4.628906 12.546875 4.484375 12.695312 4.300781 12.695312 L 1.652344 12.695312 C 1.472656 12.695312 1.324219 12.546875 1.324219 12.363281 C 1.324219 12.179688 1.472656 12.03125 1.652344 12.03125 Z M 1.652344 12.03125 "/>
     <defs>
  <style id="current-color-scheme" type="text/css">
   .ColorScheme-Text { color:#424242; } .ColorScheme-Highlight { color:#eeeeee; }
  </style>
 </defs>
<path style="fill:currentColor" class="ColorScheme-Text" d="M 4.960938 1.449219 C 4.410156 1.449219 3.96875 1.890625 3.96875 2.441406 L 3.96875 5.085938 C 3.96875 5.636719 4.410156 6.078125 4.960938 6.078125 L 13.5625 6.078125 C 14.109375 6.078125 14.554688 5.636719 14.554688 5.085938 L 14.554688 2.441406 C 14.554688 1.890625 14.109375 1.449219 13.5625 1.449219 Z M 5.621094 2.769531 L 12.898438 2.769531 C 13.082031 2.769531 13.230469 2.917969 13.230469 3.101562 L 13.230469 4.425781 C 13.230469 4.609375 13.082031 4.753906 12.898438 4.753906 L 5.621094 4.753906 C 5.441406 4.753906 5.292969 4.609375 5.292969 4.425781 L 5.292969 3.101562 C 5.292969 2.917969 5.441406 2.769531 5.621094 2.769531 Z M 5.621094 2.769531 "/>
     <defs>
  <style id="current-color-scheme" type="text/css">
   .ColorScheme-Text { color:#424242; } .ColorScheme-Highlight { color:#eeeeee; }
  </style>
 </defs>
<path style="fill:currentColor" class="ColorScheme-Text" d="M 4.960938 10.046875 C 4.410156 10.046875 3.96875 10.492188 3.96875 11.039062 L 3.96875 13.6875 C 3.96875 14.234375 4.410156 14.679688 4.960938 14.679688 L 13.5625 14.679688 C 14.109375 14.679688 14.554688 14.234375 14.554688 13.6875 L 14.554688 11.039062 C 14.554688 10.492188 14.109375 10.046875 13.5625 10.046875 Z M 5.621094 11.371094 L 12.898438 11.371094 C 13.082031 11.371094 13.230469 11.519531 13.230469 11.703125 L 13.230469 13.023438 C 13.230469 13.207031 13.082031 13.355469 12.898438 13.355469 L 5.621094 13.355469 C 5.441406 13.355469 5.292969 13.207031 5.292969 13.023438 L 5.292969 11.703125 C 5.292969 11.519531 5.441406 11.371094 5.621094 11.371094 Z M 5.621094 11.371094 "/>
     <defs>
  <style id="current-color-scheme" type="text/css">
   .ColorScheme-Text { color:#424242; } .ColorScheme-Highlight { color:#eeeeee; }
  </style>
 </defs>
<path style="fill:currentColor" class="ColorScheme-Text" d="M 1.652344 7.402344 L 2.316406 7.402344 C 2.496094 7.402344 2.644531 7.550781 2.644531 7.734375 L 2.644531 8.394531 C 2.644531 8.578125 2.496094 8.726562 2.316406 8.726562 L 1.652344 8.726562 C 1.472656 8.726562 1.324219 8.578125 1.324219 8.394531 L 1.324219 7.734375 C 1.324219 7.550781 1.472656 7.402344 1.652344 7.402344 Z M 1.652344 7.402344 "/>
</g>
</svg>
